X: 31489
T: Paddy Whack
R: jig
M: 6/8
K: Gmajor
|:c|BGB cde|dBG A2 G|GBd efg|fdd d2 e/f/|
gbg gfd|c>de dBG|GAB cAd|BGG G2:|
|:B|GBd g>fg|edc BAG|GBd e>fg|
[1 fdd d2 z|GBd g>fg|edc BAG|GAB cAd|BGG G2:|
[2 fdd d2 e/f/|gbg afd|c>de dBG|GAB cAd|BGG G2||

